production/images/icons/crown.svg

<svg width="48" height="48" viewBox="0 0 48 48" fill="none" xmlns="http://www.w3.org/2000/svg">
<path d="M4.67554 30.6411H43.2889L43.1774 31.7608C42.832 34.5239 40.8675 36.1372 38.871 36.1372H9.09342C6.83706 36.1372 5.07085 34.1946 4.78956 31.7813C4.78644 31.7562 4.80195 31.9093 4.67554 30.6411Z" fill="#2E390E"/>
<path d="M44.9735 13.7671L43.5356 28.18H4.43175L3.02754 14.0731C2.65167 10.765 6.21979 9.23605 7.86706 11.129C11.8302 15.6988 12.2545 16.6009 13.5859 16.4422C14.0863 16.3813 14.4438 16.1571 14.7408 15.8835C22.8096 8.14225 22.2819 8.64354 22.365 8.57783C23.451 7.74243 24.8475 7.88024 25.6657 8.56143C33.8187 15.4122 33.441 15.1105 33.623 15.2142C34.3843 15.6516 35.282 15.5959 36.0493 14.8434C40.5802 10.3914 40.2929 10.6688 40.377 10.6015C42.4496 8.98783 45.3053 10.8631 44.9735 13.7671Z" fill="#2E390E"/>
</svg>

<svg width="48" height="48" viewBox="0 0 48 48" fill="none" xmlns="http://www.w3.org/2000/svg"><path d="M4.676 30.641h38.613l-.112 1.12c-.345 2.763-2.31 4.376-4.306 4.376H9.093c-2.256 0-4.022-1.942-4.303-4.356-.004-.025.012.128-.114-1.14zm40.298-16.874L43.535 28.18H4.432L3.028 14.073c-.376-3.308 3.192-4.837 4.84-2.944 3.962 4.57 4.386 5.472 5.718 5.313.5-.06.858-.285 1.155-.559 8.069-7.74 7.54-7.24 7.624-7.305 1.086-.836 2.483-.698 3.3-.017 8.154 6.851 7.776 6.55 7.958 6.653.761.438 1.659.382 2.426-.37 4.531-4.453 4.244-4.175 4.328-4.242 2.073-1.614 4.928.261 4.596 3.165z" fill="#2E390E"/></svg>
